X: 146201
T: MERRY MAKERS SCHOTTISCHE
C: J.COUTTS
R: Schottische.
%R: shottish
B: James Kerr "Merry Melodies" v.1 p.46 s.2 #1
Z: 2016 John Chambers <jc:trillian.mit.edu>
M: C
L: 1/8
K: G
uD2 |:\
G>AB>c d>BG2 | e>f (3(gec) d>BG2 |\
e>f (3(gec) d>BG>B |[1 A>BA>G F>ED2 :|[2 A>GA>B G2 ::\
ud2 |\
e2e2 e>fg>e | d>^cd>e d>BG2 |\
c2c2 B>cd>B |
A>BA>G F>ED2 |\
G>AB>c d>BG2 | e>f (3(gec) d>B G2 |\
e>f (3(gec) d>BG>B | A>GA>B G2 :|[K:=f]\
[K:C]\
uG2 |\
e2f2^f2g2 | a>ge>c G4 |\
ve2f2 ^f2g2 | b>af>d A4 |\
vd2e2 f2^f2 |
a>g^f>g b2a2 |\
a2g2 f2d2 | (^d4 e2)G2 |\
e2f2 ^f2g2 | a>ge>c G4 |\
ve2f2 ^f2g2 | b>af>d A4 |\
vb>db>d b>af>d | a>ca>c a>ge>c |\
(3ded A>d B>Ge>d | c>Ge>d "_D.C."c2 |]
|: "TRIO."uG2 |\
c2c>d e2e<g | d2d>e c2c>B |\
A2A>G c2A>G | (E4 G2)c2 |\
d>cd>e f2f2 | e>dA>d c>BA>B |\
c>AG>E G2c>e | (d4 "_D.C."c2) :|
%%center repeat 1st and 2nd parts and then to Trio.

%%sep 1 1 500
%%sep 1 1 500

